(Created with emc2b post processor 2020/11/07 14:20)
(tool change to 2.5 mm Drill Bit)
T1 M06 G43
G17 G90 G21
G00 X24.315 Y13 S3000 M03
Z5
G83 Q1 G98 X24.315 Y13 Z-5 R2 F150
X38.315 Y13 
G80
(tool change to 5.0 mm Slot Cutter)
T3 M06 G43
G00 X31.015 Y13 S3000 M03
Z2
G01 Z-1.45 F100
G03 X30.915 Y13 I-0.05 J0 F200
G01 X30.915 Y3.03 
G02 X30.915 Y3 I-2.6 J-0.032 
G01 X31.715 Y3 
G02 X31.715 Y3.036 I2.6 J-0.004 
G01 X31.715 Y22.964 
G02 X31.715 Y23 I2.6 J0.039 
G01 X30.915 Y23 
G02 X30.915 Y22.97 I-2.6 J0.002 
G01 X30.915 Y13 
G03 X31.015 Y13 I0.05 J0 
G01 Z-2.9 F100
G03 X30.915 Y13 I-0.05 J0 F200
G01 X30.915 Y3.03 
G02 X30.915 Y3 I-2.6 J-0.032 
G01 X31.715 Y3 
G02 X31.715 Y3.036 I2.6 J-0.004 
G01 X31.715 Y22.964 
G02 X31.715 Y23 I2.6 J0.039 
G01 X30.915 Y23 
G02 X30.915 Y22.97 I-2.6 J0.002 
G01 X30.915 Y13 
G03 X31.015 Y13 I0.05 J0 
G01 Z-3 F100
G03 X30.915 Y13 I-0.05 J0 F200
G01 X30.915 Y3.03 
G02 X30.915 Y3 I-2.6 J-0.032 
G01 X31.715 Y3 
G02 X31.715 Y3.036 I2.6 J-0.004 
G01 X31.715 Y22.964 
G02 X31.715 Y23 I2.6 J0.039 
G01 X30.915 Y23 
G02 X30.915 Y22.97 I-2.6 J0.002 
G01 X30.915 Y13 
G03 X31.015 Y13 I0.05 J0 
G00 Z5
G90
X30.915 Y13
Z2
G01 Z-3 F100
G02 X30.815 Y13 I-0.05 J0 
G01 X30.815 Y22.971 
G03 X30.815 Y23.014 I-2.5 J0.032 
G01 X30.815 Y23.092 
X30.91 Y23.1 
X31.72 Y23.1 
X31.815 Y23.092 
X31.815 Y23.014 
G03 X31.815 Y22.965 I2.5 J-0.01 
G01 X31.815 Y3.035 
G03 X31.815 Y2.986 I2.5 J-0.039 
G01 X31.815 Y2.908 
X31.72 Y2.9 
X30.91 Y2.9 
X30.815 Y2.908 
X30.815 Y2.986 
G03 X30.815 Y3.029 I-2.5 J0.012 
G01 X30.815 Y13 
G02 X30.915 Y13 I0.05 J0 
G00 Z5
(tool change to 6.0 mm Slot Cutter)
T4 M06 G43
G90
X16.827 Y13.418 S3000 M03
Z2
G01 Z-2.5 
G03 X16.927 Y13.405 I0.05 J-0.007 F200
G01 X16.978 Y13.793 Z-2.5 
G02 X17.187 Y14.574 Z-2.5 I3.073 J-0.405 
G01 X17.337 Y14.936 Z-2.5 
G02 X17.516 Y15.3 Z-2.5 I2.864 J-1.186 
G01 X22.424 Y23.8 Z-2.5 
G02 X22.649 Y24.138 Z-2.5 I2.685 J-1.55 
G01 X22.888 Y24.448 Z-2.5 
G02 X23.459 Y25.02 Z-2.5 I2.459 J-1.888 
G01 X23.77 Y25.258 Z-2.5 
G02 X24.472 Y25.663 Z-2.5 I1.888 J-2.459 
G01 X24.833 Y25.813 Z-2.5 
G02 X25.614 Y26.022 Z-2.5 I1.186 J-2.864 
G01 X26.002 Y26.073 Z-2.5 
G02 X26.407 Y26.1 Z-2.5 I0.405 J-3.073 
G01 X36.222 Y26.1 Z-2.5 
G02 X36.628 Y26.073 Z-2.5 I0 J-3.1 
G01 X37.016 Y26.022 Z-2.5 
G02 X37.796 Y25.813 Z-2.5 I-0.405 J-3.073 
G01 X38.158 Y25.663 Z-2.5 
G02 X38.86 Y25.258 Z-2.5 I-1.186 J-2.864 
G01 X39.171 Y25.02 Z-2.5 
G02 X39.742 Y24.448 Z-2.5 I-1.888 J-2.459 
G01 X39.981 Y24.138 Z-2.5 
G02 X40.206 Y23.8 Z-2.5 I-2.459 J-1.888 
G01 X45.114 Y15.3 Z-2.5 
G02 X45.293 Y14.936 Z-2.5 I-2.685 J-1.55 
G01 X45.443 Y14.574 Z-2.5 
G02 X45.652 Y13.794 Z-2.5 I-2.864 J-1.186 
G01 X45.703 Y13.405 Z-2.5 
G02 X45.703 Y12.595 Z-2.5 I-3.073 J-0.405 
G01 X45.652 Y12.206 Z-2.5 
G02 X45.443 Y11.426 Z-2.5 I-3.073 J0.405 
G01 X45.293 Y11.064 Z-2.5 
G02 X45.114 Y10.7 Z-2.5 I-2.864 J1.186 
G01 X40.206 Y2.2 Z-2.5 
G02 X39.981 Y1.863 Z-2.5 I-2.685 J1.55 
G01 X39.742 Y1.552 Z-2.5 
G02 X39.171 Y0.98 Z-2.5 I-2.459 J1.887 
G01 X38.86 Y0.742 Z-2.5 
G02 X38.158 Y0.337 Z-2.5 I-1.888 J2.459 
G01 X37.796 Y0.187 Z-2.5 
G02 X37.015 Y-0.022 Z-2.5 I-1.186 J2.864 
G01 X36.627 Y-0.073 Z-2.5 
G02 X36.222 Y-0.1 Z-2.5 I-0.405 J3.073 
G01 X26.407 Y-0.1 Z-2.5 
G02 X26.003 Y-0.073 Z-2.5 I0 J3.1 
G01 X25.615 Y-0.022 Z-2.5 
G02 X24.833 Y0.187 Z-2.5 I0.405 J3.073 
G01 X24.472 Y0.337 Z-2.5 
G02 X23.77 Y0.742 Z-2.5 I1.186 J2.864 
G01 X23.459 Y0.98 Z-2.5 
G02 X22.887 Y1.552 Z-2.5 I1.888 J2.459 
G01 X22.649 Y1.863 Z-2.5 
G02 X22.424 Y2.2 Z-2.5 I2.459 J1.887 
G01 X17.516 Y10.7 Z-2.5 
G02 X17.337 Y11.064 Z-2.5 I2.685 J1.55 
G01 X17.187 Y11.426 Z-2.5 
G02 X16.978 Y12.207 Z-2.5 I2.864 J1.186 
G01 X16.926 Y12.596 Z-2.5 
G02 X16.927 Y13.405 Z-2.5 I3.074 J0.404 
G03 X16.827 Y13.418 I-0.05 J0.007 
G01 Z-4 F100
G03 X16.927 Y13.405 I0.05 J-0.007 F200
G01 X16.978 Y13.793 Z-4 
G02 X17.187 Y14.574 Z-4 I3.073 J-0.405 
G01 X17.337 Y14.936 Z-4 
G02 X17.431 Y15.143 Z-4 I2.864 J-1.186 
X17.516 Y15.3 Z-4 I2.769 J-1.393 
G01 X18.427 Y16.877 Z-4 
X20.699 Y20.813 Z-4 
X21.699 Y22.545 Z-6 
X22.424 Y23.8 Z-6 
G02 X22.649 Y24.138 Z-6 I2.685 J-1.55 
G01 X22.888 Y24.448 Z-6 
G02 X23.459 Y25.02 Z-6 I2.459 J-1.888 
G01 X23.77 Y25.258 Z-6 
G02 X24.472 Y25.663 Z-6 I1.888 J-2.459 
G01 X24.833 Y25.813 Z-6 
G02 X25.614 Y26.022 Z-6 I1.186 J-2.864 
G01 X26.002 Y26.073 Z-6 
G02 X26.407 Y26.1 Z-6 I0.405 J-3.073 
G01 X36.222 Y26.1 Z-6 
G02 X36.628 Y26.073 Z-6 I0 J-3.1 
G01 X37.016 Y26.022 Z-6 
G02 X37.796 Y25.813 Z-6 I-0.405 J-3.073 
G01 X38.158 Y25.663 Z-6 
G02 X38.86 Y25.258 Z-6 I-1.186 J-2.864 
G01 X39.171 Y25.02 Z-6 
G02 X39.742 Y24.448 Z-6 I-1.888 J-2.459 
G01 X39.981 Y24.138 Z-6 
G02 X40.206 Y23.8 Z-6 I-2.459 J-1.888 
G01 X40.931 Y22.545 Z-6 
X41.931 Y20.813 Z-4 
X44.203 Y16.877 Z-4 
X45.114 Y15.3 Z-4 
G02 X45.198 Y15.143 Z-4 I-2.685 J-1.55 
X45.293 Y14.936 Z-4 I-2.769 J-1.393 
G01 X45.443 Y14.574 Z-4 
G02 X45.652 Y13.794 Z-4 I-2.864 J-1.186 
G01 X45.703 Y13.405 Z-4 
G02 X45.703 Y12.595 Z-4 I-3.073 J-0.405 
G01 X45.652 Y12.206 Z-4 
G02 X45.443 Y11.426 Z-4 I-3.073 J0.405 
G01 X45.293 Y11.064 Z-4 
G02 X45.198 Y10.857 Z-4 I-2.864 J1.186 
X45.114 Y10.7 Z-4 I-2.769 J1.393 
G01 X44.203 Y9.123 Z-4 
X41.931 Y5.187 Z-4 
X40.931 Y3.455 Z-6 
X40.206 Y2.2 Z-6 
G02 X39.981 Y1.863 Z-6 I-2.685 J1.55 
G01 X39.742 Y1.552 Z-6 
G02 X39.171 Y0.98 Z-6 I-2.459 J1.887 
G01 X38.86 Y0.742 Z-6 
G02 X38.158 Y0.337 Z-6 I-1.888 J2.459 
G01 X37.796 Y0.187 Z-6 
G02 X37.015 Y-0.022 Z-6 I-1.186 J2.864 
G01 X36.627 Y-0.073 Z-6 
G02 X36.222 Y-0.1 Z-6 I-0.405 J3.073 
G01 X26.407 Y-0.1 Z-6 
G02 X26.003 Y-0.073 Z-6 I0 J3.1 
G01 X25.615 Y-0.022 Z-6 
G02 X24.833 Y0.187 Z-6 I0.405 J3.073 
G01 X24.472 Y0.337 Z-6 
G02 X23.77 Y0.742 Z-6 I1.186 J2.864 
G01 X23.459 Y0.98 Z-6 
G02 X22.887 Y1.552 Z-6 I1.888 J2.459 
G01 X22.649 Y1.863 Z-6 
G02 X22.424 Y2.2 Z-6 I2.459 J1.887 
G01 X21.699 Y3.455 Z-6 
X20.699 Y5.187 Z-4 
X18.427 Y9.123 Z-4 
X17.516 Y10.7 Z-4 
G02 X17.431 Y10.857 Z-4 I2.685 J1.55 
X17.337 Y11.064 Z-4 I2.769 J1.393 
G01 X17.187 Y11.426 Z-4 
G02 X16.978 Y12.207 Z-4 I2.864 J1.186 
G01 X16.926 Y12.596 Z-4 
G02 X16.927 Y13.405 Z-4 I3.074 J0.404 
G03 X16.827 Y13.418 I-0.05 J0.007 
G00 Z5
G90
X16.926 Y12.596
Z2
G01 Z-4 F100
G02 X17.026 Y12.609 I0.05 J0.007 
G01 X17.077 Y12.22 Z-4 
G03 X17.279 Y11.464 Z-4 I2.974 J0.391 
G01 X17.429 Y11.102 Z-4 
G03 X17.567 Y10.814 Z-4 I2.772 J1.148 
X17.603 Y10.75 Z-4 I2.634 J1.436 
G01 X18.566 Y9.082 Z-4 
X20.786 Y5.237 Z-4 
X21.786 Y3.505 Z-6 
X22.51 Y2.25 Z-6 
G03 X22.728 Y1.924 Z-6 I2.598 J1.5 
G01 X22.967 Y1.613 Z-6 
G03 X23.52 Y1.059 Z-6 I2.38 J1.826 
G01 X23.831 Y0.821 Z-6 
G03 X24.51 Y0.429 Z-6 I1.827 J2.38 
G01 X24.872 Y0.279 Z-6 
G03 X25.628 Y0.077 Z-6 I1.148 J2.772 
G01 X26.016 Y0.026 Z-6 
G03 X26.407 Y0 Z-6 I0.392 J2.974 
G01 X36.222 Y0 Z-6 
G03 X36.614 Y0.026 Z-6 I0 J3 
G01 X37.002 Y0.077 Z-6 
G03 X37.758 Y0.279 Z-6 I-0.392 J2.974 
G01 X38.12 Y0.429 Z-6 
G03 X38.799 Y0.821 Z-6 I-1.148 J2.772 
G01 X39.11 Y1.059 Z-6 
G03 X39.663 Y1.613 Z-6 I-1.827 J2.38 
G01 X39.901 Y1.924 Z-6 
G03 X40.119 Y2.25 Z-6 I-2.38 J1.826 
G01 X40.844 Y3.505 Z-6 
X41.844 Y5.237 Z-4 
X44.064 Y9.082 Z-4 
X45.027 Y10.75 Z-4 
G03 X45.063 Y10.814 Z-4 I-2.598 J1.5 
X45.201 Y11.102 Z-4 I-2.634 J1.436 
G01 X45.35 Y11.464 Z-4 
G03 X45.553 Y12.22 Z-4 I-2.772 J1.148 
G01 X45.604 Y12.608 Z-4 
G03 X45.604 Y13.392 Z-4 I-2.974 J0.392 
G01 X45.553 Y13.78 Z-4 
G03 X45.351 Y14.536 Z-4 I-2.974 J-0.392 
G01 X45.201 Y14.898 Z-4 
G03 X45.063 Y15.186 Z-4 I-2.772 J-1.148 
X45.027 Y15.25 Z-4 I-2.634 J-1.436 
G01 X44.064 Y16.918 Z-4 
X41.844 Y20.763 Z-4 
X40.844 Y22.495 Z-6 
X40.119 Y23.75 Z-6 
G03 X39.901 Y24.077 Z-6 I-2.598 J-1.5 
G01 X39.663 Y24.387 Z-6 
G03 X39.11 Y24.94 Z-6 I-2.38 J-1.827 
G01 X38.799 Y25.179 Z-6 
G03 X38.12 Y25.571 Z-6 I-1.827 J-2.38 
G01 X37.758 Y25.721 Z-6 
G03 X37.003 Y25.923 Z-6 I-1.148 J-2.772 
G01 X36.615 Y25.974 Z-6 
G03 X36.222 Y26 Z-6 I-0.392 J-2.974 
G01 X26.407 Y26 Z-6 
G03 X26.015 Y25.974 Z-6 I0 J-3 
G01 X25.627 Y25.923 Z-6 
G03 X24.872 Y25.721 Z-6 I0.392 J-2.974 
G01 X24.51 Y25.571 Z-6 
G03 X23.831 Y25.179 Z-6 I1.148 J-2.772 
G01 X23.52 Y24.94 Z-6 
G03 X22.967 Y24.387 Z-6 I1.827 J-2.38 
G01 X22.729 Y24.077 Z-6 
G03 X22.51 Y23.75 Z-6 I2.38 J-1.827 
G01 X21.786 Y22.495 Z-6 
X20.786 Y20.763 Z-4 
X18.566 Y16.918 Z-4 
X17.603 Y15.25 Z-4 
G03 X17.567 Y15.186 Z-4 I2.598 J-1.5 
X17.429 Y14.898 Z-4 I2.634 J-1.436 
G01 X17.279 Y14.536 Z-4 
G03 X17.077 Y13.78 Z-4 I2.772 J-1.148 
G01 X17.026 Y13.392 Z-4 
G03 X17.026 Y12.609 Z-4 I2.974 J-0.392 
G02 X16.926 Y12.596 I-0.05 J-0.007 
G00 Z5
T0 M06 M02
